X:1
T:Title
%%score { ( 1 3 ) | 2 }
L:1/8
Q:1/4=112
M:4/4
K:G
V:1 treble nm="Grand Piano"
V:3 treble 
V:2 treble 
V:1
 B2 B2 G2 G2 | [Fc]2 [Fc]2 [FA]3 [FA] | [FA][FA][DGB][EGc] [DGB]2 [CDA]2 | [B,DG]6 z2 | %4
w: J.~H.~Rosecrans * * *||||
 B2 B2 G2 G2 | [Fc]2 [Fc]2 [FA]3 [FA] | [FA][FA][DGB][EGc] [DGB]2 [CDA]2 | [B,DG]6 z2 | d4 B B3 | %9
w: |||||
 d2 d2 B4 | [DAc]4 [DFA] [DFA]3 | c2 c2 A4 | GABc B2 [DFA]2 | [GB]3 [Fc] [Gd]4 | %14
w: |||||
 [B,G][CGA][DGB][EAc] [DGB]2 [CDA]2 | [B,DG]6 z2 |] %16
w: ||
V:2
 [G,DG]2 [G,DG]2[K:bass] [G,B,D]2 [G,B,D]2 | [D,A,]2 [D,A,]2 [D,D]3 [D,D] | %2
 [D,D][D,D]G,C, D,2 D,2 | G,,6 z2 | [G,DG]2 [G,DG]2[K:bass] [G,B,D]2 [G,B,D]2 | %5
 [D,A,]2 [D,A,]2 [D,D]3 [D,D] | [D,D][D,D]G,C, D,2 D,2 | G,,6 z2 | [G,B,G]4 [G,DG] [G,DG]3 | %9
 B2 B2 G4 | D,4 D, D,3 | A2 A2 F4 | [G,B,][G,CG][G,DG][G,EG] [G,DG]2[K:bass] D,2 | G,3 A, B,4 | %14
 G,G,G,C, D,2 D,2 | G,,6 z2 |] %16
V:3
 x8 | x8 | x8 | x8 | x8 | x8 | x8 | x8 | x8 | x8 | x8 | x8 | x8 | D8 | x8 | x8 |] %16

